X: 26873
T: Miners Of Wicklow, The
R: jig
M: 6/8
K: Cmajor
|:EGG GEG|cBA GEG|AFD D2A|GEC C2D|
EGG GEG|cBA GEG|ABc dcB|1 c3 c2F:|2 c3 c2d||
ece ece|dBd dBd|ece ece|dBA c2d|
ece ece|dBd dBd|ABc dcB|c3 c2d|
ece ece|dBd dBd|ece ece|dBA G2F|
EGG GEG|cBA GEG|ABc dcB|c3 c2F||

